icons/.local/share/icons/Tela/symbolic/actions/insert-emoticon-symbolic.svg

<svg width="16" height="16" version="1.1" xmlns="http://www.w3.org/2000/svg">
 <path d="m5 5c0.56 0 1 0.45 1 1s-0.44 1-1 1c-0.55 0-1-0.45-1-1s0.45-1 1-1zm6 0c0.56 0 1 0.45 1 1s-0.44 1-1 1c-0.55 0-1-0.45-1-1s0.45-1 1-1zm-7 5h8c-0.95 1.26-2.42 2-4 2-1.57 0-3.06-0.74-4-2z" fill="#565656"/>
 <path d="m8 0a8 8 0 0 0-8 8 8 8 0 0 0 8 8 8 8 0 0 0 8-8 8 8 0 0 0-8-8zm0 2a6 6 0 0 1 6 6 6 6 0 0 1-6 6 6 6 0 0 1-6-6 6 6 0 0 1 6-6z" fill="#565656"/>
</svg>

<svg xmlns="http://www.w3.org/2000/svg" width="16" height="16" version="1.1">
 <path style="fill:#555555" d="M 8,1 C 4.14,1 1,4.13 1,8 1,11.87 4.14,15 8,15 11.87,15 15,11.87 15,8 15,4.13 11.87,1 8,1 Z M 5,5 C 5.56,5 6,5.45 6,6 6,6.55 5.56,7 5,7 4.45,7 4,6.55 4,6 4,5.45 4.45,5 5,5 Z M 11,5 C 11.56,5 12,5.45 12,6 12,6.55 11.56,7 11,7 10.45,7 10,6.55 10,6 10,5.45 10.45,5 11,5 Z M 4,10 H 12 C 11.05,11.26 9.58,12 8,12 6.43,12 4.94,11.26 4,10 Z"/>
</svg>
